flaticon/arrows/right-arrow.svg

<svg xmlns="http://www.w3.org/2000/svg" width="32" height="32" viewBox="0 0 24 24">
    <path d="M 12 0 C 5.382812 0 0 5.382812 0 12 C 0 18.617188 5.382812 24 12 24 C 18.617188 24 24 18.617188 24 12 C 24 5.382812 18.617188 0 12 0 Z M 12 23.109375 C 5.875 23.109375 0.890625 18.125 0.890625 12 C 0.890625 5.875 5.875 0.890625 12 0.890625 C 18.125 0.890625 23.109375 5.875 23.109375 12 C 23.109375 18.125 18.125 23.109375 12 23.109375 Z M 12 23.109375"/>
    <path d="M 16.285156 11.53125 L 9.574219 7.65625 C 9.339844 7.519531 9.058594 7.519531 8.820312 7.65625 C 8.585938 7.792969 8.445312 8.035156 8.445312 8.308594 L 8.445312 16.058594 C 8.445312 16.332031 8.585938 16.574219 8.820312 16.710938 C 8.9375 16.78125 9.070312 16.8125 9.199219 16.8125 C 9.328125 16.8125 9.457031 16.78125 9.574219 16.710938 L 16.285156 12.835938 C 16.523438 12.699219 16.664062 12.457031 16.664062 12.183594 C 16.664062 11.910156 16.523438 11.667969 16.285156 11.53125 Z M 9.332031 15.824219 L 9.332031 8.542969 L 15.636719 12.183594 Z M 9.332031 15.824219"/>
</svg>

<svg xmlns="http://www.w3.org/2000/svg" width="32" height="32" viewBox="0 0 24 24">
    <path d="M12 0C5.383 0 0 5.383 0 12s5.383 12 12 12 12-5.383 12-12S18.617 0 12 0zm0 23.11C5.875 23.11.89 18.124.89 12 .89 5.875 5.876.89 12 .89 18.125.89 23.11 5.876 23.11 12c0 6.125-4.985 11.11-11.11 11.11zm0 0"/>
    <path d="M16.285 11.531l-6.71-3.875a.744.744 0 0 0-.755 0 .746.746 0 0 0-.375.653v7.75c0 .273.14.515.375.652.117.07.25.102.38.102a.723.723 0 0 0 .374-.102l6.711-3.875a.742.742 0 0 0 .38-.652.742.742 0 0 0-.38-.653zm-6.953 4.293V8.543l6.305 3.64zm0 0"/>
</svg>
